; HEADER_BLOCK_START
; generated by OrcaSlicer 2.3.2-rc2 on 2026-03-26 at 20:15:39
; total layer number: 255
; filament_density: 1.24
; filament_diameter: 1.75
; max_z_height: 51.05
; filament: 1
; HEADER_BLOCK_END

; THUMBNAIL_BLOCK_START

;
; THUMBNAIL_BLOCK_END

; THUMBNAIL_BLOCK_START

;
; THUMBNAIL_BLOCK_END

; external perimeters extrusion width = 0.40mm
; perimeters extrusion width = 0.42mm
; infill extrusion width = 0.45mm
; solid infill extrusion width = 0.40mm
; top infill extrusion width = 0.38mm
; first layer extrusion width = 0.50mm

; EXECUTABLE_BLOCK_START
EXCLUDE_OBJECT_DEFINE NAME=malm.stl_id_0_copy_0 CENTER=110,110 POLYGON=[[24.5,50],[195.5,50],[195.5,170],[24.5,170],[24.5,50]]
M73 P0 R146
;TYPE:Custom
SET_LED LED="neo" RED=0.4 GREEN=0.0 BLUE=0.0 SYNC=0 TRANSMIT=1
M140 S55 ;set bed temp
M190 S55 ;wait for bed temp
START_PRINT
G90
G1 X0 F6000
G1 Y20
G1 Z0.400 F600
G1 Y-4 F6000
M400
M104 S235 ;set extruder temp
M109 S235;wait for extruder temp
G91
M83
G1 E-0.200 Z5 F600
G1 X73.3333 F6000
G1 Z-4.800 F600
G1 X36.6667 E8.8 F3000
G1 X36.6667 E5.86667 F3000
G1 Y1 E0.16 F3000
G1 X-36.6667 E5.86667 F3000
G1 X-36.6667 E8.8 F3000
G1 Y1 E0.24 F3000
G1 X36.6667 E8.8 F3000
G1 X36.6667 E5.86667 F3000
G1 E-0.200 Z1 F600
M400

G90
G21
M83 ; use relative distances for extrusion
; Filament gcode
M106 S0
;LAYER_CHANGE
;Z:0.25
;HEIGHT:0.25
TIMELAPSE_TAKE_FRAME
G92 E0
G1 E-.8 F2400
;_SET_FAN_SPEED_CHANGING_LAYER
SET_VELOCITY_LIMIT ACCEL=2000
; printing object malm.stl id:0 copy 0
EXCLUDE_OBJECT_START NAME=malm.stl_id_0_copy_0
G1 X21.067 Y42.984 F21600
G1 Z.65
G1 Z.25
G1 E.8 F2400
;TYPE:Brim
;WIDTH:0.5
G1 F1800
G1 X21.87 Y42.645 E.0396
G1 X22.705 Y42.398 E.0396
G1 X23.562 Y42.246 E.03958
G1 X24.507 Y42.189 E.04301
G1 X180.494 Y42.189 E7.09192
G1 X181.37 Y42.238 E.03989
G1 X182.229 Y42.383 E.0396
G1 X183.066 Y42.623 E.0396
G1 X183.871 Y42.954 E.0396
G1 X184.635 Y43.374 E.0396
G1 X185.347 Y43.875 E.0396
G1 X185.999 Y44.453 E.0396
G1 X186.582 Y45.1 E.0396
G1 X186.818 Y45.429 E.0184
G1 X186.939 Y45.513 E.0067
G1 X187.086 Y45.504 E.0067
G1 X187.182 Y45.427 E.00561
G1 X187.375 Y45.153 E.01525
G1 X187.953 Y44.501 E.0396
G1 X188.6 Y43.918 E.0396
G1 X189.308 Y43.41 E.0396
G1 X190.067 Y42.984 E.0396
G1 X190.87 Y42.645 E.0396
G1 X191.705 Y42.398 E.0396
G1 X192.562 Y42.246 E.03958
G1 X193.507 Y42.189 E.04301
G1 X195.494 Y42.189 E.09034
G1 X196.37 Y42.238 E.03989
G1 X197.229 Y42.383 E.0396
G1 X198.066 Y42.623 E.0396
G1 X198.871 Y42.954 E.0396
G1 X199.635 Y43.374 E.0396
G1 X200.347 Y43.875 E.0396
G1 X200.999 Y44.453 E.0396
G1 X201.582 Y45.1 E.0396
G1 X202.09 Y45.808 E.0396
G1 X202.516 Y46.567 E.0396
G1 X202.855 Y47.37 E.0396
G1 X203.102 Y48.205 E.0396
G1 X203.254 Y49.062 E.03958
G1 X203.311 Y50.007 E.04301
G1 X203.311 Y169.994 E5.45519
G1 X203.262 Y170.87 E.03989
G1 X203.117 Y171.729 E.0396
G1 X202.877 Y172.566 E.0396
G1 X202.546 Y173.371 E.0396
G1 X202.126 Y174.135 E.0396
G1 X201.625 Y174.847 E.0396
G1 X201.047 Y175.499 E.0396
G1 X200.4 Y176.082 E.0396
G1 X199.692 Y176.59 E.0396
G1 X198.933 Y177.016 E.0396
G1 X198.13 Y177.355 E.0396
G1 X197.295 Y177.602 E.0396
G1 X196.438 Y177.754 E.03958
G1 X195.493 Y177.811 E.04301
G1 X193.506 Y177.811 E.09034
G1 X192.63 Y177.762 E.03989
G1 X191.771 Y177.617 E.0396
G1 X190.934 Y177.377 E.0396
G1 X190.129 Y177.046 E.0396
G1 X189.365 Y176.626 E.0396
G1 X188.653 Y176.125 E.0396
G1 X188.001 Y175.547 E.0396
G1 X187.418 Y174.9 E.0396
G1 X187.182 Y174.571 E.0184
G1 X187.061 Y174.487 E.0067
G1 X186.914 Y174.496 E.0067
G1 X186.818 Y174.573 E.00561
G1 X186.625 Y174.847 E.01525
G1 X186.047 Y175.499 E.0396
G1 X185.4 Y176.082 E.0396
G1 X184.692 Y176.59 E.0396
G1 X183.933 Y177.016 E.0396
G1 X183.13 Y177.355 E.0396
G1 X182.295 Y177.602 E.0396
G1 X181.438 Y177.754 E.03958
G1 X180.493 Y177.811 E.04301
G1 X24.506 Y177.811 E7.09192
G1 X23.63 Y177.762 E.03989
G1 X22.771 Y177.617 E.0396
G1 X21.934 Y177.377 E.0396
G1 X21.129 Y177.046 E.0396
G1 X20.365 Y176.626 E.0396
G1 X19.653 Y176.125 E.0396
G1 X19.001 Y175.547 E.0396
G1 X18.418 Y174.9 E.0396
G1 X17.91 Y174.192 E.0396
G1 X17.484 Y173.433 E.0396
G1 X17.145 Y172.63 E.0396
G1 X16.898 Y171.795 E.0396
G1 X16.746 Y170.938 E.03958
G1 X16.689 Y169.993 E.04301
G1 X16.689 Y50.006 E5.45519
G1 X16.738 Y49.13 E.03989
M73 P0 R145
G1 X16.883 Y48.271 E.0396
G1 X17.123 Y47.434 E.0396
G1 X17.454 Y46.629 E.0396
G1 X17.874 Y45.865 E.0396
G1 X18.375 Y45.153 E.0396
G1 X18.953 Y44.501 E.0396
G1 X19.6 Y43.918 E.0396
G1 X20.308 Y43.41 E.0396
G1 X21.05 Y42.994 E.03869
G1 X21.257 Y43.389 F21600
G1 F1800
G1 X22.028 Y43.064 E.03801
G1 X22.801 Y42.835 E.03666
G1 X23.607 Y42.691 E.03725
G1 X24.524 Y42.635 E.04176
G1 X180.485 Y42.635 E7.09073
G1 X181.312 Y42.682 E.03768
G1 X182.122 Y42.818 E.03733
G1 X182.912 Y43.043 E.03733
G1 X183.685 Y43.361 E.03801
G1 X184.392 Y43.749 E.03666
G1 X185.064 Y44.221 E.03733
G1 X185.689 Y44.776 E.03801
G1 X186.229 Y45.375 E.03666
G1 X186.449 Y45.68 E.01709
G1 X186.571 Y45.8 E.0078
G1 X186.671 Y45.87 E.00555
G1 X186.857 Y45.95 E.00922
G1 X186.974 Y45.958 E.00533
G1 X187.092 Y45.951 E.00536
G1 X187.382 Y45.839 E.01412
G1 X187.454 Y45.781 E.00424
G1 X187.552 Y45.676 E.00651
G1 X187.731 Y45.425 E.01402
G1 X188.276 Y44.811 E.03733
G1 X188.875 Y44.271 E.03666
G1 X189.541 Y43.791 E.03733
G1 X190.271 Y43.383 E.03801
G1 X191.014 Y43.069 E.03666
G1 X191.801 Y42.835 E.03733
G1 X192.623 Y42.689 E.03796
G1 X193.516 Y42.635 E.04069
G1 X195.485 Y42.635 E.08952
G1 X196.327 Y42.683 E.03835
G1 X197.122 Y42.818 E.03666
G1 X197.912 Y43.043 E.03733
G1 X198.685 Y43.361 E.03801
G1 X199.404 Y43.757 E.03733
G1 X200.075 Y44.231 E.03733
G1 X200.689 Y44.776 E.03733
G1 X201.229 Y45.375 E.03666
G1 X201.709 Y46.041 E.03733
G1 X202.117 Y46.771 E.03801
G1 X202.436 Y47.528 E.03733
G1 X202.665 Y48.301 E.03666
G1 X202.809 Y49.107 E.03725
G1 X202.865 Y50.024 E.04176
G1 X202.865 Y169.978 E5.45366
G1 X202.818 Y170.812 E.03802
G1 X202.682 Y171.622 E.03733
G1 X202.457 Y172.412 E.03733
G1 X202.145 Y173.172 E.03733
G1 X201.751 Y173.892 E.03733
G1 X201.279 Y174.564 E.03733
G1 X200.734 Y175.179 E.03733
G1 X200.125 Y175.729 E.03733
G1 X199.459 Y176.209 E.03733
G1 X198.729 Y176.617 E.03801
G1 X197.972 Y176.936 E.03733
G1 X197.185 Y177.168 E.03733
G1 X196.377 Y177.311 E.03728
G1 X195.484 Y177.365 E.04069
G1 X193.522 Y177.365 E.08918
G1 X192.673 Y177.317 E.03869
G1 X191.878 Y177.182 E.03666
G1 X191.088 Y176.957 E.03733
G1 X190.328 Y176.645 E.03733
G1 X189.608 Y176.251 E.03733
G1 X188.936 Y175.779 E.03733
G1 X188.321 Y175.234 E.03733
G1 X187.771 Y174.625 E.03733
G1 X187.551 Y174.32 E.01709
G1 X187.429 Y174.2 E.0078
G1 X187.329 Y174.13 E.00555
G1 X187.143 Y174.05 E.00922
G1 X187.026 Y174.042 E.00533
G1 X186.908 Y174.049 E.00536
G1 X186.623 Y174.159 E.01387
G1 X186.445 Y174.327 E.01114
G1 X186.269 Y174.575 E.01384
G1 X185.734 Y175.179 E.03666
G1 X185.114 Y175.739 E.03801
G1 X184.459 Y176.209 E.03666
G1 X183.743 Y176.611 E.03733
G1 X182.986 Y176.931 E.03733
G1 X182.185 Y177.168 E.03801
G1 X181.377 Y177.311 E.03728
G1 X180.476 Y177.365 E.04105
G1 X24.522 Y177.365 E7.09039
G1 X23.688 Y177.318 E.03802
G1 X22.878 Y177.182 E.03733
G1 X22.088 Y176.957 E.03733
G1 X21.328 Y176.645 E.03733
G1 X20.608 Y176.251 E.03733
G1 X19.936 Y175.779 E.03733
G1 X19.321 Y175.234 E.03733
G1 X18.771 Y174.625 E.03733
G1 X18.291 Y173.959 E.03733
G1 X17.889 Y173.243 E.03733
G1 X17.564 Y172.472 E.03801
G1 X17.335 Y171.699 E.03666
G1 X17.191 Y170.893 E.03725
G1 X17.135 Y169.976 E.04176
G1 X17.135 Y50.022 E5.45366
G1 X17.182 Y49.188 E.03802
G1 X17.318 Y48.378 E.03733
G1 X17.543 Y47.588 E.03733
G1 X17.855 Y46.828 E.03733
G1 X18.249 Y46.108 E.03733
G1 X18.721 Y45.436 E.03733
G1 X19.266 Y44.821 E.03733
G1 X19.875 Y44.271 E.03733
G1 X20.541 Y43.791 E.03733
G1 X21.24 Y43.399 E.03643
G1 X21.447 Y43.794 F21600
G1 F1800
G1 X22.185 Y43.483 E.03641
G1 X22.911 Y43.269 E.0344
G1 X23.653 Y43.136 E.03426
G1 X24.542 Y43.082 E.04049
G1 X180.469 Y43.082 E7.08919
G1 X181.256 Y43.126 E.03582
G1 X182.031 Y43.256 E.03575
G1 X182.772 Y43.468 E.03506
G1 X183.499 Y43.768 E.03573
G1 X184.161 Y44.133 E.03439
G1 X184.792 Y44.577 E.03507
G1 X185.38 Y45.099 E.03573
G1 X185.877 Y45.65 E.03374
G1 X186.141 Y46.002 E.02002
G1 X186.32 Y46.169 E.0111
G1 X186.505 Y46.285 E.00995
G1 X186.668 Y46.355 E.00804
G1 X186.944 Y46.403 E.01277
G1 X187.11 Y46.397 E.00756
G1 X187.263 Y46.364 E.00708
G1 X187.533 Y46.259 E.01318
G1 X187.665 Y46.183 E.00691
G1 X187.875 Y45.985 E.01315
G1 X188.086 Y45.697 E.01621
G1 X188.599 Y45.121 E.0351
G1 X189.161 Y44.614 E.03441
G1 X189.775 Y44.173 E.03439
G1 X190.461 Y43.788 E.03574
G1 X191.171 Y43.488 E.03507
G1 X191.911 Y43.269 E.03507
G1 X192.668 Y43.135 E.03494
G1 X193.526 Y43.082 E.03907
G1 X195.476 Y43.082 E.08869
G1 X196.27 Y43.127 E.03614
G1 X197.031 Y43.256 E.03508
G1 X197.772 Y43.468 E.03507
G1 X198.485 Y43.762 E.03504
G1 X199.161 Y44.133 E.03506
G1 X199.791 Y44.577 E.03507
G1 X200.379 Y45.099 E.03575
G1 X200.886 Y45.661 E.03441
G1 X201.327 Y46.275 E.03439
G1 X201.712 Y46.96 E.03572
G1 X202.017 Y47.685 E.03574
G1 X202.231 Y48.411 E.03441
G1 X202.364 Y49.153 E.03426
G1 X202.418 Y50.042 E.0405
G1 X202.418 Y169.961 E5.45212
G1 X202.374 Y170.756 E.03616
G1 X202.248 Y171.516 E.03507
G1 X202.037 Y172.258 E.03507
G1 X201.745 Y172.972 E.03507
G1 X201.375 Y173.649 E.03506
G1 X200.932 Y174.28 E.03507
G1 X200.422 Y174.859 E.03507
G1 X199.85 Y175.376 E.03506
G1 X199.225 Y175.827 E.03505
G1 X198.54 Y176.212 E.03572
G1 X197.815 Y176.517 E.03573
G1 X197.075 Y176.734 E.03507
G1 X196.317 Y176.867 E.03499
G1 X195.474 Y176.918 E.03838
G1 X193.539 Y176.918 E.088
G1 X192.715 Y176.871 E.0375
G1 X191.969 Y176.744 E.03441
G1 X191.228 Y176.532 E.03508
G1 X190.514 Y176.238 E.03507
G1 X189.851 Y175.875 E.03439
G1 X189.22 Y175.432 E.03507
G1 X188.641 Y174.922 E.03506
G1 X188.123 Y174.35 E.03508
G1 X187.859 Y173.998 E.02001
G1 X187.68 Y173.831 E.0111
G1 X187.495 Y173.715 E.00995
G1 X187.328 Y173.644 E.00823
G1 X187.163 Y173.604 E.00773
G1 X186.998 Y173.597 E.00752
G1 X186.734 Y173.638 E.01216
G1 X186.475 Y173.738 E.01262
G1 X186.308 Y173.843 E.00898
G1 X186.147 Y173.995 E.01003
G1 X185.914 Y174.303 E.01756
G1 X185.422 Y174.858 E.03375
G1 X184.839 Y175.386 E.03574
G1 X184.224 Y175.827 E.0344
G1 X183.552 Y176.206 E.03507
G1 X182.828 Y176.512 E.03573
G1 X182.075 Y176.734 E.03572
G1 X181.317 Y176.867 E.03497
G1 X180.458 Y176.918 E.03911
G1 X24.539 Y176.918 E7.08887
G1 X23.744 Y176.874 E.03616
G1 X22.984 Y176.748 E.03507
G1 X22.242 Y176.537 E.03507
G1 X21.528 Y176.245 E.03507
G1 X20.851 Y175.875 E.03506
G1 X20.22 Y175.432 E.03507
G1 X19.641 Y174.922 E.03507
G1 X19.124 Y174.35 E.03506
G1 X18.673 Y173.724 E.03507
G1 X18.294 Y173.053 E.03505
G1 X17.983 Y172.315 E.03641
G1 X17.769 Y171.589 E.0344
G1 X17.636 Y170.847 E.03426
G1 X17.582 Y169.958 E.04049
G1 X17.582 Y50.039 E5.45212
G1 X17.626 Y49.244 E.03616
G1 X17.752 Y48.484 E.03507
G1 X17.963 Y47.742 E.03507
G1 X18.255 Y47.028 E.03507
G1 X18.625 Y46.351 E.03506
G1 X19.068 Y45.72 E.03507
G1 X19.578 Y45.141 E.03507
G1 X20.15 Y44.624 E.03506
G1 X20.776 Y44.173 E.03507
G1 X21.43 Y43.804 E.03414
G1 X21.638 Y44.199 F21600
G1 F1800
G1 X22.343 Y43.902 E.0348
G1 X23.007 Y43.706 E.03146
G1 X23.698 Y43.582 E.03195
G1 X24.56 Y43.528 E.03923
G1 X180.453 Y43.528 E7.08765
G1 X181.199 Y43.569 E.03396
G1 X181.925 Y43.691 E.03347
G1 X182.632 Y43.893 E.03345
G1 X183.312 Y44.175 E.03345
G1 X183.931 Y44.516 E.03213
G1 X184.52 Y44.933 E.03281
G1 X185.07 Y45.422 E.03346
G1 X185.528 Y45.93 E.03109
G1 X185.843 Y46.335 E.02334
G1 X186.091 Y46.552 E.01501
G1 X186.26 Y46.658 E.00907
G1 X186.487 Y46.762 E.01132
G1 X186.596 Y46.795 E.00521
G1 X186.972 Y46.848 E.01725
G1 X187.117 Y46.843 E.00658
G1 X187.351 Y46.801 E.01083
G1 X187.687 Y46.678 E.01627
G1 X187.877 Y46.575 E.00984
G1 X188.175 Y46.314 E.01802
G1 X188.437 Y45.974 E.01952
G1 X188.911 Y45.441 E.0324
G1 X189.448 Y44.958 E.03284
G1 X190.022 Y44.546 E.03215
G1 X190.651 Y44.193 E.03278
G1 X191.329 Y43.907 E.03347
G1 X192.007 Y43.706 E.03212
G1 X192.713 Y43.58 E.03263
G1 X193.535 Y43.529 E.03744
G1 X195.467 Y43.529 E.08785
G1 X196.213 Y43.571 E.03393
G1 X196.939 Y43.694 E.0335
G1 X197.632 Y43.893 E.0328
G1 X198.285 Y44.162 E.03209
G1 X198.918 Y44.508 E.03279
G1 X199.519 Y44.932 E.03347
G1 X200.069 Y45.422 E.03347
G1 X200.533 Y45.936 E.03149
G1 X200.946 Y46.51 E.03213
G1 X201.307 Y47.15 E.03343
G1 X201.598 Y47.842 E.03414
G1 X201.794 Y48.507 E.03149
G1 X201.918 Y49.198 E.03195
G1 X201.972 Y50.06 E.03923
G1 X201.972 Y169.945 E5.45058
G1 X201.931 Y170.699 E.03431
G1 X201.813 Y171.411 E.03281
G1 X201.616 Y172.105 E.0328
G1 X201.344 Y172.773 E.0328
G1 X200.999 Y173.407 E.0328
G1 X200.585 Y173.998 E.0328
G1 X200.108 Y174.539 E.0328
G1 X199.574 Y175.024 E.0328
G1 X198.977 Y175.454 E.03345
G1 X198.336 Y175.813 E.03343
G1 X197.658 Y176.098 E.03343
G1 X196.966 Y176.3 E.03278
G1 X196.257 Y176.424 E.0327
G1 X195.457 Y176.472 E.03645
G1 X193.555 Y176.472 E.08646
G1 X192.758 Y176.426 E.0363
G1 X192.061 Y176.306 E.03215
G1 X191.382 Y176.112 E.03215
G1 X190.714 Y175.838 E.03281
G1 X190.094 Y175.499 E.03214
G1 X189.502 Y175.085 E.03281
G1 X188.961 Y174.608 E.0328
G1 X188.472 Y174.07 E.03307
G1 X188.157 Y173.665 E.02332
G1 X187.909 Y173.448 E.01501
G1 X187.74 Y173.342 E.00907
G1 X187.511 Y173.237 E.01145
G1 X187.276 Y173.172 E.01109
G1 X187.026 Y173.152 E.0114
G1 X186.566 Y173.224 E.02116
G1 X186.324 Y173.318 E.0118
G1 X186.077 Y173.461 E.01299
G1 X185.847 Y173.665 E.01397
G1 X185.565 Y174.024 E.02074
G1 X185.109 Y174.538 E.03125
G1 X184.563 Y175.033 E.03348
G1 X183.99 Y175.446 E.03215
G1 X183.362 Y175.801 E.0328
G1 X182.685 Y176.088 E.03343
G1 X181.965 Y176.3 E.03411
G1 X181.257 Y176.424 E.03267
G1 X180.441 Y176.472 E.03717
G1 X24.555 Y176.472 E7.08735
G1 X23.801 Y176.431 E.03431
M73 P0 R144
G1 X23.089 Y176.313 E.03281
G1 X22.395 Y176.116 E.0328
G1 X21.727 Y175.844 E.0328
G1 X21.093 Y175.499 E.0328
G1 X20.502 Y175.085 E.0328
G1 X19.961 Y174.608 E.0328
G1 X19.476 Y174.074 E.0328
G1 X19.054 Y173.49 E.0328
G1 X18.699 Y172.862 E.03276
G1 X18.402 Y172.157 E.0348
G1 X18.206 Y171.493 E.03146
G1 X18.082 Y170.802 E.03195
G1 X18.028 Y169.94 E.03923
G1 X18.028 Y50.055 E5.45058
G1 X18.069 Y49.301 E.03431
M73 P1 R144
G1 X18.187 Y48.589 E.03281
G1 X18.384 Y47.895 E.0328
G1 X18.656 Y47.227 E.0328
G1 X19.001 Y46.593 E.0328
G1 X19.415 Y46.002 E.0328
G1 X19.892 Y45.461 E.0328
G1 X20.426 Y44.976 E.0328
G1 X21.01 Y44.554 E.0328
G1 X21.62 Y44.209 E.03185
G1 X21.828 Y44.604 F21600
G1 F1800
G1 X22.5 Y44.321 E.03318
G1 X23.117 Y44.14 E.0292
G1 X23.744 Y44.027 E.02899
G1 X24.578 Y43.974 E.03796
G1 X180.437 Y43.974 E7.0861
G1 X181.142 Y44.013 E.03211
G1 X181.819 Y44.125 E.03119
G1 X182.477 Y44.313 E.03114
G1 X183.125 Y44.581 E.03184
G1 X183.699 Y44.899 E.02987
G1 X184.248 Y45.288 E.03055
G1 X184.759 Y45.744 E.03119
G1 X185.182 Y46.213 E.0287
G1 X185.484 Y46.599 E.02227
G1 X185.863 Y46.935 E.02303
G1 X186.08 Y47.067 E.01153
G1 X186.366 Y47.192 E.01419
G1 X186.54 Y47.238 E.00819
G1 X186.997 Y47.294 E.02092
G1 X187.202 Y47.281 E.00935
G1 X187.513 Y47.217 E.01446
G1 X187.832 Y47.1 E.01544
G1 X188.078 Y46.974 E.01257
G1 X188.462 Y46.656 E.02266
G1 X188.784 Y46.255 E.02338
G1 X189.223 Y45.762 E.02999
G1 X189.734 Y45.302 E.03126
G1 X190.269 Y44.92 E.0299
G1 X190.841 Y44.598 E.02983
G1 X191.487 Y44.326 E.03187
G1 X192.117 Y44.14 E.02986
G1 X192.759 Y44.025 E.02965
G1 X193.545 Y43.975 E.0358
G1 X195.458 Y43.975 E.087
G1 X196.17 Y44.016 E.0324
G1 X196.847 Y44.132 E.03123
G1 X197.492 Y44.318 E.03053
G1 X198.099 Y44.569 E.02985
G1 X198.675 Y44.884 E.02984
G1 X199.235 Y45.278 E.03116
G1 X199.759 Y45.744 E.03187
G1 X200.189 Y46.223 E.02926
G1 X200.565 Y46.744 E.02923
G1 X200.908 Y47.354 E.03181
G1 X201.179 Y48 E.03182
G1 X201.36 Y48.617 E.02924
G1 X201.473 Y49.244 E.02899
G1 X201.526 Y50.078 E.03796
G1 X201.526 Y169.929 E5.44903
G1 X201.487 Y170.643 E.03248
G1 X201.378 Y171.306 E.03056
G1 X201.196 Y171.952 E.03053
G1 X200.943 Y172.575 E.03053
G1 X200.622 Y173.165 E.03053
G1 X200.229 Y173.727 E.03121
G1 X199.784 Y174.23 E.03053
G1 X199.287 Y174.681 E.03052
G1 X198.73 Y175.081 E.03115
G1 X198.133 Y175.415 E.03111
G1 X197.501 Y175.679 E.03113
